material/.icons/material/dice-3-outline.svg

<svg xmlns="http://www.w3.org/2000/svg" viewBox="0 0 24 24"><path d="M19 5v14H5V5h14m0-2H5c-1.1 0-2 .9-2 2v14c0 1.1.9 2 2 2h14c1.1 0 2-.9 2-2V5c0-1.1-.9-2-2-2m-7 7.5c-.8 0-1.5.7-1.5 1.5s.7 1.5 1.5 1.5 1.5-.7 1.5-1.5-.7-1.5-1.5-1.5M7.5 6C6.7 6 6 6.7 6 7.5S6.7 9 7.5 9 9 8.3 9 7.5 8.3 6 7.5 6m9 9c-.8 0-1.5.7-1.5 1.5s.7 1.5 1.5 1.5 1.5-.7 1.5-1.5-.7-1.5-1.5-1.5z"/></svg>

<?xml version="1.0" encoding="UTF-8"?><!DOCTYPE svg PUBLIC "-//W3C//DTD SVG 1.1//EN" "http://www.w3.org/Graphics/SVG/1.1/DTD/svg11.dtd"><svg xmlns="http://www.w3.org/2000/svg" xmlns:xlink="http://www.w3.org/1999/xlink" version="1.1" id="mdi-dice-3-outline" width="24" height="24" viewBox="0 0 24 24"><path d="M19 5V19H5V5H19M19 3H5C3.9 3 3 3.9 3 5V19C3 20.1 3.9 21 5 21H19C20.1 21 21 20.1 21 19V5C21 3.9 20.1 3 19 3M12 10.5C11.2 10.5 10.5 11.2 10.5 12S11.2 13.5 12 13.5 13.5 12.8 13.5 12 12.8 10.5 12 10.5M7.5 6C6.7 6 6 6.7 6 7.5S6.7 9 7.5 9 9 8.3 9 7.5 8.3 6 7.5 6M16.5 15C15.7 15 15 15.7 15 16.5C15 17.3 15.7 18 16.5 18C17.3 18 18 17.3 18 16.5C18 15.7 17.3 15 16.5 15Z" /></svg>
